packages/match-icons/sendgrid/svg/templates.svg

<svg fill="none" height="32" viewBox="0 0 32 32" width="32" xmlns="http://www.w3.org/2000/svg"><g stroke="#394762" stroke-linecap="round" stroke-linejoin="round" stroke-width="1.7"><path d="m1 1h30v30h-30z"/><path d="m7 23 4.616-6.1546c.1719-.2294.3911-.4191.6427-.5563.2516-.1373.5298-.2188.8156-.2392.2859-.0203.5728.021.8414.1212.2685.1002.5123.2569.715.4596l1.3693 1.3693 4.4-5.8666c.1863-.2484.4279-.45.7056-.5889.2777-.1388.5839-.2111.8944-.2111s.6167.0723.8944.2111c.2777.1389.5193.3405.7056.5889l3.56 4.7466"/><path d="m6 8.5c0 .66304.26339 1.29893.73223 1.7678.46884.4688 1.10473.7322 1.76777.7322s1.29893-.2634 1.7678-.7322c.4688-.46887.7322-1.10476.7322-1.7678s-.2634-1.29893-.7322-1.76777c-.46887-.46884-1.10476-.73223-1.7678-.73223s-1.29893.26339-1.76777.73223-.73223 1.10473-.73223 1.76777z"/><path d="m1 23h30"/></g></svg>

<svg width="32" height="32" viewBox="0 0 32 32" fill="none" xmlns="http://www.w3.org/2000/svg">
<path d="M1 1H31V31H1V1Z" stroke="#394762" stroke-width="1.7" stroke-linecap="round" stroke-linejoin="round"/>
<path d="M7 23L11.616 16.8454C11.7879 16.616 12.0071 16.4263 12.2587 16.2891C12.5103 16.1518 12.7885 16.0703 13.0743 16.0499C13.3602 16.0296 13.6471 16.0709 13.9157 16.1711C14.1842 16.2713 14.428 16.428 14.6307 16.6307L16 18L20.4 12.1334C20.5863 11.885 20.8279 11.6834 21.1056 11.5445C21.3833 11.4057 21.6895 11.3334 22 11.3334C22.3105 11.3334 22.6167 11.4057 22.8944 11.5445C23.1721 11.6834 23.4137 11.885 23.6 12.1334L27.16 16.88" stroke="#394762" stroke-width="1.7" stroke-linecap="round" stroke-linejoin="round"/>
<path d="M6 8.5C6 9.16304 6.26339 9.79893 6.73223 10.2678C7.20107 10.7366 7.83696 11 8.5 11C9.16304 11 9.79893 10.7366 10.2678 10.2678C10.7366 9.79893 11 9.16304 11 8.5C11 7.83696 10.7366 7.20107 10.2678 6.73223C9.79893 6.26339 9.16304 6 8.5 6C7.83696 6 7.20107 6.26339 6.73223 6.73223C6.26339 7.20107 6 7.83696 6 8.5Z" stroke="#394762" stroke-width="1.7" stroke-linecap="round" stroke-linejoin="round"/>
<path d="M1 23H31" stroke="#394762" stroke-width="1.7" stroke-linecap="round" stroke-linejoin="round"/>
</svg>
